assets/images/about/about-line-4.svg

<svg width="346" height="352" viewBox="0 0 346 352" fill="none" xmlns="http://www.w3.org/2000/svg">
<circle r="143.711" transform="matrix(-1 0 0 1 172.982 174.51)" stroke="#0029FF"/>
<circle r="172.5" transform="matrix(-1 0 0 1 173 174.492)" stroke="#0029FF"/>
<path d="M73.3474 191.87L76.1304 201.505L86.3938 198.548L87.2586 201.505L64.1026 207.97L60.0166 193.76L62.4998 193.071L65.8055 204.371L73.5357 202.296L70.8642 192.56L73.3474 191.87Z" fill="#0029FF"/>
<path d="M71.4895 178.285L74.7351 180.656L82.7877 180.452L82.9804 183.527L59.0001 184.626L58.765 181.526L70.5065 180.975L67.4921 178.788L58.2139 172.15L57.9788 168.446L68.9839 176.383L81.936 166.785L82.171 170.489L71.4895 178.285Z" fill="#0029FF"/>
<path d="M80.6372 160.61L82.4993 149.071L85.0358 149.506L82.5916 164.015L58.9686 159.93L59.4659 156.912L80.6372 160.61Z" fill="#0029FF"/>
<path d="M272.011 157.692L267.711 147.717L258.103 150.44L256.763 147.352L278.223 141.245L284.692 156.197L282.381 156.837L277.307 145.129L270.01 147.212L274.31 157.188L272.011 157.692Z" fill="#0029FF"/>
<path d="M274.465 170.828L270.916 168.138L263.058 168.306L262.358 165.077L285.43 164.386L286.13 167.615L274.869 167.976L278.181 170.246L288.451 177.542L289.303 181.371L277.325 172.751L266.377 182.349L265.525 178.52L274.465 170.828Z" fill="#0029FF"/>
<path d="M266.991 188.467L267.156 200.62L264.533 200.089L264.371 184.902L288.437 189.577L288.528 192.745L266.991 188.467Z" fill="#0029FF"/>
<circle r="60.3598" transform="matrix(-1 0 0 1 171.658 175.833)" stroke="#0029FF"/>
<circle r="44.4833" transform="matrix(-1 0 0 1 171.659 175.833)" stroke="#0029FF"/>
<circle cx="103.701" cy="247.53" r="15.3765" stroke="#0029FF"/>
<circle cx="242.253" cy="247.53" r="15.3765" stroke="#0029FF"/>
<circle cx="103.701" cy="102.165" r="15.3765" stroke="#0029FF"/>
<circle cx="242.253" cy="102.165" r="15.3765" stroke="#0029FF"/>
</svg>

<svg width="346" height="352" fill="none" xmlns="http://www.w3.org/2000/svg"><circle r="143.711" transform="matrix(-1 0 0 1 172.982 174.51)" stroke="#0029FF"/><circle r="172.5" transform="matrix(-1 0 0 1 173 174.492)" stroke="#0029FF"/><path d="M73.347 191.87l2.783 9.635 10.264-2.957.865 2.957-23.156 6.465-4.086-14.21 2.483-.689 3.305 11.3 7.73-2.075-2.67-9.736 2.482-.69zm-1.857-13.585l3.245 2.371 8.053-.204.192 3.075L59 184.626l-.235-3.1 11.742-.551-3.015-2.187-9.278-6.638-.235-3.704 11.005 7.937 12.952-9.598.235 3.704-10.681 7.796zm9.147-17.675l1.862-11.539 2.537.435-2.444 14.509-23.623-4.085.497-3.018 21.171 3.698zm191.374-2.918l-4.3-9.975-9.608 2.723-1.34-3.088 21.46-6.107 6.469 14.952-2.311.64-5.074-11.708-7.297 2.083 4.3 9.976-2.299.504zm2.454 13.136l-3.549-2.69-7.858.168-.7-3.229 23.072-.691.7 3.229-11.261.361 3.312 2.27 10.27 7.296.852 3.829-11.978-8.62-10.948 9.598-.852-3.829 8.94-7.692zm-7.474 17.639l.165 12.153-2.623-.531-.162-15.187 24.066 4.675.091 3.168-21.537-4.278z" fill="#0029FF"/><circle r="60.36" transform="matrix(-1 0 0 1 171.658 175.833)" stroke="#0029FF"/><circle r="44.483" transform="matrix(-1 0 0 1 171.659 175.833)" stroke="#0029FF"/><circle cx="103.701" cy="247.53" r="15.377" stroke="#0029FF"/><circle cx="242.253" cy="247.53" r="15.377" stroke="#0029FF"/><circle cx="103.701" cy="102.165" r="15.377" stroke="#0029FF"/><circle cx="242.253" cy="102.165" r="15.377" stroke="#0029FF"/></svg>
